X: 1784
T: Ar Éirinn Ní Neosfainn Cé Hí
R: waltz
M: 3/4
K: Gmajor
FA|B2E2EF|G2A2BA|B4EG|F2E2 (3DEF)|A2F2EF|
D4FA|B2E2EF|G2A2BA|B4EG|F2E2DE|F2E2E2|E4||
Bc|d2e2 (3dBA)|G2B2d2|e4 (3fge)|d2e2BA|GF EF AF|
D4FA|B2E2EF|G2A2BA|B4EG|F2E2DF|F2E2E2|E4||
GA|B2D2D2|E2G3A|B4GA|B2D2D2|E2G2B2|A3B/A/ GA|
B2D2D2|Ec- c3/2d/c/ BA|B4AG|E2D2D2|
E G3G2|G4Bc|d2B2 (3ABA)|G2B2d2|e4ge|
d2B2A2|G3A B2|A4GA|B2D2D2|Ec- c3/2d/c/ BA|
B4A/B/A/G/|E2D2D2|E G3G2|G4||

